assets/Foggy/Flat/foggy_flat.svg

<svg width="32" height="32" viewBox="0 0 32 32" fill="none" xmlns="http://www.w3.org/2000/svg">
<path d="M2 6C2 3.79086 3.79086 2 6 2H26C28.2091 2 30 3.79086 30 6V26C30 28.2091 28.2091 30 26 30H6C3.79086 30 2 28.2091 2 26V6Z" fill="#D3D3D3"/>
<path d="M2.33933 4.3851C2.12116 4.87896 2 5.42527 2 5.99988V15.0512H30V5.99988C30 5.5234 29.9167 5.06637 29.7638 4.64258C29.2777 4.85901 28.7661 5.05433 28.1711 5.05433C27.3439 5.05433 26.8323 4.80219 26.3274 4.55343C25.836 4.31125 25.351 4.07227 24.5877 4.07227C23.9218 4.07227 23.4251 4.31076 22.9212 4.55269C22.4025 4.80169 21.8763 5.05433 21.1503 5.05433C20.4078 5.05433 19.929 4.81546 19.4436 4.57334C18.9449 4.32452 18.4392 4.07227 17.6333 4.07227C16.8369 4.07227 16.3289 4.31861 15.8217 4.56455C15.3163 4.80964 14.8117 5.05433 14.0234 5.05433C13.3114 5.05433 12.8577 4.81962 12.3939 4.57969C11.909 4.32884 11.4131 4.07227 10.5993 4.07227C9.91138 4.07227 9.41815 4.30526 8.91218 4.54427C8.37938 4.79596 7.83244 5.05433 7.02918 5.05433C6.35818 5.05433 5.85895 4.81076 5.35773 4.56622C4.85252 4.31973 4.3453 4.07227 3.65815 4.07227C3.08832 4.07227 2.69755 4.21149 2.33933 4.3851Z" fill="#E6E6E6"/>
<path d="M30 12.8263V21.0755H5.80884V12H6.52551C7.21267 12 7.71989 12.2475 8.22509 12.494C8.72631 12.7385 9.22555 12.9821 9.89654 12.9821C10.6998 12.9821 11.2467 12.7237 11.7795 12.472C12.2855 12.233 12.7787 12 13.4666 12C14.2804 12 14.7764 12.2566 15.2613 12.5074C15.7251 12.7474 16.1788 12.9821 16.8908 12.9821C17.6791 12.9821 18.1837 12.7374 18.6891 12.4923C19.1963 12.2463 19.7043 12 20.5007 12C21.3066 12 21.8122 12.2523 22.311 12.5011C22.7963 12.7432 23.2751 12.9821 24.0177 12.9821C24.7437 12.9821 25.2699 12.7294 25.7885 12.4804C26.2924 12.2385 26.7892 12 27.4551 12C28.2183 12 28.7033 12.239 29.1948 12.4812C29.4484 12.6061 29.7038 12.732 30 12.8263Z" fill="#F4F4F4"/>
<path d="M6.9651 30H8.9925L13 29V9V8V7.25C13 6.55964 12.4404 6 11.75 6H10.25C9.55964 6 9 6.55964 9 7.25V8H5.25C4.55964 8 4 8.55964 4 9.25V28.4649L6.9651 30ZM18 29L20.9956 30H23.0053L28 28.4649V17.25C28 16.5596 27.4404 16 26.75 16H19.25C18.5596 16 18 16.5596 18 17.25V29Z" fill="#9B9B9B"/>
<path d="M2 14V26C3.17905 28 3.79086 28 6 28H7V15.25C7 14.5596 6.44036 14 5.75 14H2ZM9 28H21V24.25C21 23.5596 20.4404 23 19.75 23H19V12.25C19 11.5596 18.4404 11 17.75 11H10.25C9.55964 11 9 11.5596 9 12.25V28ZM23 28H26C28.2091 28 28.3671 27.0427 30 26V19H24.25C23.5596 19 23 19.5596 23 20.25V28Z" fill="#5A93CB"/>
<path d="M11.5 13C11.2239 13 11 13.2239 11 13.5V14.5C11 14.7761 11.2239 15 11.5 15H12.5C12.7761 15 13 14.7761 13 14.5V13.5C13 13.2239 12.7761 13 12.5 13H11.5ZM3.5 20C3.22386 20 3 20.2239 3 20.5V21.5C3 21.7761 3.22386 22 3.5 22H4.5C4.77614 22 5 21.7761 5 21.5V20.5C5 20.2239 4.77614 20 4.5 20H3.5ZM11 17.5C11 17.2239 11.2239 17 11.5 17H12.5C12.7761 17 13 17.2239 13 17.5V18.5C13 18.7761 12.7761 19 12.5 19H11.5C11.2239 19 11 18.7761 11 18.5V17.5ZM11.5 25C11.2239 25 11 25.2239 11 25.5V26.5C11 26.7761 11.2239 27 11.5 27H12.5C12.7761 27 13 26.7761 13 26.5V25.5C13 25.2239 12.7761 25 12.5 25H11.5ZM15 17.5C15 17.2239 15.2239 17 15.5 17H16.5C16.7761 17 17 17.2239 17 17.5V18.5C17 18.7761 16.7761 19 16.5 19H15.5C15.2239 19 15 18.7761 15 18.5V17.5ZM15.5 21C15.2239 21 15 21.2239 15 21.5V22.5C15 22.7761 15.2239 23 15.5 23H16.5C16.7761 23 17 22.7761 17 22.5V21.5C17 21.2239 16.7761 21 16.5 21H15.5ZM24 22C24 21.4477 24.4477 21 25 21H30V23H25C24.4477 23 24 22.5523 24 22ZM25 25C24.4477 25 24 25.4477 24 26C24 26.5523 24.4477 27 25 27H29.3504C29.5805 27 29.7808 26.843 29.8359 26.6196L30 25.9531V25H25Z" fill="#FFF478"/>
<path d="M11.5 13C11.2239 13 11 13.2239 11 13.5H12C12.2761 13.5 12.5 13.7239 12.5 14V15C12.7761 15 13 14.7761 13 14.5V13.5C13 13.2239 12.7761 13 12.5 13H11.5Z" fill="#FCD53F"/>
<path d="M3.5 20C3.22386 20 3 20.2239 3 20.5H4C4.27614 20.5 4.5 20.7239 4.5 21V22C4.77614 22 5 21.7761 5 21.5V20.5C5 20.2239 4.77614 20 4.5 20H3.5Z" fill="#FCD53F"/>
<path d="M11 17.5C11 17.2239 11.2239 17 11.5 17H12.5C12.7761 17 13 17.2239 13 17.5V18.5C13 18.7761 12.7761 19 12.5 19V18C12.5 17.7239 12.2761 17.5 12 17.5H11Z" fill="#FCD53F"/>
<path d="M11.5 25C11.2239 25 11 25.2239 11 25.5H12C12.2761 25.5 12.5 25.7239 12.5 26V27C12.7761 27 13 26.7761 13 26.5V25.5C13 25.2239 12.7761 25 12.5 25H11.5Z" fill="#FCD53F"/>
<path d="M15 17.5C15 17.2239 15.2239 17 15.5 17H16.5C16.7761 17 17 17.2239 17 17.5V18.5C17 18.7761 16.7761 19 16.5 19V18C16.5 17.7239 16.2761 17.5 16 17.5H15Z" fill="#FCD53F"/>
<path d="M15.5 21C15.2239 21 15 21.2239 15 21.5H16C16.2761 21.5 16.5 21.7239 16.5 22V23C16.7761 23 17 22.7761 17 22.5V21.5C17 21.2239 16.7761 21 16.5 21H15.5Z" fill="#FCD53F"/>
<path d="M25 21C24.6299 21 24.3067 21.2011 24.1338 21.5H30V21H25Z" fill="#FCD53F"/>
<path d="M25 25C24.6299 25 24.3067 25.2011 24.1338 25.5H30V25H25Z" fill="#FCD53F"/>
<path d="M15 13.5C15 13.2239 15.2239 13 15.5 13H16.5C16.7761 13 17 13.2239 17 13.5V14.5C17 14.7761 16.7761 15 16.5 15H15.5C15.2239 15 15 14.7761 15 14.5V13.5ZM3 16.5C3 16.2239 3.22386 16 3.5 16H4.5C4.77614 16 5 16.2239 5 16.5V17.5C5 17.7761 4.77614 18 4.5 18H3.5C3.22386 18 3 17.7761 3 17.5V16.5ZM3 24.5C3 24.2239 3.22386 24 3.5 24H4.5C4.77614 24 5 24.2239 5 24.5V25.5C5 25.7761 4.77614 26 4.5 26H3.5C3.22386 26 3 25.7761 3 25.5V24.5ZM11.5 21C11.2239 21 11 21.2239 11 21.5V22.5C11 22.7761 11.2239 23 11.5 23H12.5C12.7761 23 13 22.7761 13 22.5V21.5C13 21.2239 12.7761 21 12.5 21H11.5ZM15.5 25C15.2239 25 15 25.2239 15 25.5V26.5C15 26.7761 15.2239 27 15.5 27H16.5C16.7761 27 17 26.7761 17 26.5V25.5C17 25.2239 16.7761 25 16.5 25H15.5Z" fill="#212121"/>
<path d="M30 25.9497V25.9999C30 28.209 28.2091 29.9999 26 29.9999H6C3.79086 29.9999 2 28.209 2 25.9999V25.9497H2.05548C2.74264 25.9497 3.24986 26.1972 3.75506 26.4437C4.25628 26.6882 4.75551 26.9318 5.42651 26.9318C6.22977 26.9318 6.77671 26.6734 7.30951 26.4217C7.81548 26.1827 8.30871 25.9497 8.99661 25.9497C9.8104 25.9497 10.3064 26.2063 10.7913 26.4571C11.255 26.6971 11.7087 26.9318 12.4207 26.9318C13.2091 26.9318 13.7136 26.6871 14.2191 26.442C14.7262 26.1961 15.2343 25.9497 16.0306 25.9497C16.8365 25.9497 17.3422 26.202 17.8409 26.4508C18.3263 26.6929 18.8051 26.9318 19.5477 26.9318C20.2736 26.9318 20.7999 26.6791 21.3185 26.4301C21.8224 26.1882 22.3192 25.9497 22.985 25.9497C23.7483 25.9497 24.2333 26.1887 24.7248 26.4309C25.2296 26.6796 25.7413 26.9318 26.5684 26.9318C27.2605 26.9318 27.8398 26.6675 28.3973 26.4132C28.9146 26.1772 29.4132 25.9497 29.966 25.9497H30Z" fill="#D3D3D3"/>
</svg>

<svg xmlns="http://www.w3.org/2000/svg" width="32" height="32" fill="none"><path fill="#D3D3D3" d="M2 6a4 4 0 0 1 4-4h20a4 4 0 0 1 4 4v20a4 4 0 0 1-4 4H6a4 4 0 0 1-4-4V6Z"/><path fill="#E6E6E6" d="M2.34 4.385A3.986 3.986 0 0 0 2 6v9.051h28V6c0-.477-.083-.934-.236-1.357-.486.216-.998.411-1.593.411-.827 0-1.339-.252-1.844-.5-.491-.243-.976-.482-1.74-.482-.665 0-1.162.239-1.666.48-.518.25-1.045.502-1.77.502-.743 0-1.222-.239-1.707-.48-.5-.25-1.005-.502-1.81-.502-.797 0-1.305.247-1.812.493-.506.245-1.01.49-1.799.49-.712 0-1.165-.235-1.63-.475-.484-.251-.98-.508-1.794-.508-.688 0-1.18.233-1.687.472-.533.252-1.08.51-1.883.51-.67 0-1.17-.243-1.671-.488-.505-.246-1.013-.494-1.7-.494-.57 0-.96.14-1.319.313Z"/><path fill="#F4F4F4" d="M30 12.826v8.25H5.809V12h.717c.687 0 1.194.248 1.7.494.5.245 1 .488 1.67.488.804 0 1.35-.258 1.883-.51.507-.239 1-.472 1.688-.472.813 0 1.31.257 1.794.507.464.24.918.475 1.63.475.788 0 1.293-.245 1.798-.49.507-.246 1.015-.492 1.812-.492.806 0 1.311.252 1.81.501.485.242.964.481 1.707.481.726 0 1.252-.253 1.77-.502.504-.242 1.001-.48 1.667-.48.763 0 1.248.239 1.74.481.253.125.509.251.805.345Z"/><path fill="#9B9B9B" d="M6.965 30h2.027L13 29V7.25C13 6.56 12.44 6 11.75 6h-1.5C9.56 6 9 6.56 9 7.25V8H5.25C4.56 8 4 8.56 4 9.25v19.215L6.965 30ZM18 29l2.996 1h2.01L28 28.465V17.25c0-.69-.56-1.25-1.25-1.25h-7.5c-.69 0-1.25.56-1.25 1.25V29Z"/><path fill="#5A93CB" d="M2 14v12c1.18 2 1.79 2 4 2h1V15.25C7 14.56 6.44 14 5.75 14H2Zm7 14h12v-3.75c0-.69-.56-1.25-1.25-1.25H19V12.25c0-.69-.56-1.25-1.25-1.25h-7.5C9.56 11 9 11.56 9 12.25V28Zm14 0h3c2.21 0 2.367-.957 4-2v-7h-5.75c-.69 0-1.25.56-1.25 1.25V28Z"/><path fill="#FFF478" d="M11.5 13a.5.5 0 0 0-.5.5v1a.5.5 0 0 0 .5.5h1a.5.5 0 0 0 .5-.5v-1a.5.5 0 0 0-.5-.5h-1Zm-8 7a.5.5 0 0 0-.5.5v1a.5.5 0 0 0 .5.5h1a.5.5 0 0 0 .5-.5v-1a.5.5 0 0 0-.5-.5h-1Zm7.5-2.5a.5.5 0 0 1 .5-.5h1a.5.5 0 0 1 .5.5v1a.5.5 0 0 1-.5.5h-1a.5.5 0 0 1-.5-.5v-1Zm.5 7.5a.5.5 0 0 0-.5.5v1a.5.5 0 0 0 .5.5h1a.5.5 0 0 0 .5-.5v-1a.5.5 0 0 0-.5-.5h-1Zm3.5-7.5a.5.5 0 0 1 .5-.5h1a.5.5 0 0 1 .5.5v1a.5.5 0 0 1-.5.5h-1a.5.5 0 0 1-.5-.5v-1Zm.5 3.5a.5.5 0 0 0-.5.5v1a.5.5 0 0 0 .5.5h1a.5.5 0 0 0 .5-.5v-1a.5.5 0 0 0-.5-.5h-1Zm8.5 1a1 1 0 0 1 1-1h5v2h-5a1 1 0 0 1-1-1Zm1 3a1 1 0 1 0 0 2h4.35a.5.5 0 0 0 .486-.38l.164-.667V25h-5Z"/><path fill="#FCD53F" d="M11.5 13a.5.5 0 0 0-.5.5h1a.5.5 0 0 1 .5.5v1a.5.5 0 0 0 .5-.5v-1a.5.5 0 0 0-.5-.5h-1ZM3.5 20a.5.5 0 0 0-.5.5h1a.5.5 0 0 1 .5.5v1a.5.5 0 0 0 .5-.5v-1a.5.5 0 0 0-.5-.5h-1ZM11 17.5a.5.5 0 0 1 .5-.5h1a.5.5 0 0 1 .5.5v1a.5.5 0 0 1-.5.5v-1a.5.5 0 0 0-.5-.5h-1ZM11.5 25a.5.5 0 0 0-.5.5h1a.5.5 0 0 1 .5.5v1a.5.5 0 0 0 .5-.5v-1a.5.5 0 0 0-.5-.5h-1ZM15 17.5a.5.5 0 0 1 .5-.5h1a.5.5 0 0 1 .5.5v1a.5.5 0 0 1-.5.5v-1a.5.5 0 0 0-.5-.5h-1ZM15.5 21a.5.5 0 0 0-.5.5h1a.5.5 0 0 1 .5.5v1a.5.5 0 0 0 .5-.5v-1a.5.5 0 0 0-.5-.5h-1ZM25 21a1 1 0 0 0-.866.5H30V21h-5ZM25 25a1 1 0 0 0-.866.5H30V25h-5Z"/><path fill="#212121" d="M15 13.5a.5.5 0 0 1 .5-.5h1a.5.5 0 0 1 .5.5v1a.5.5 0 0 1-.5.5h-1a.5.5 0 0 1-.5-.5v-1Zm-12 3a.5.5 0 0 1 .5-.5h1a.5.5 0 0 1 .5.5v1a.5.5 0 0 1-.5.5h-1a.5.5 0 0 1-.5-.5v-1Zm0 8a.5.5 0 0 1 .5-.5h1a.5.5 0 0 1 .5.5v1a.5.5 0 0 1-.5.5h-1a.5.5 0 0 1-.5-.5v-1Zm8.5-3.5a.5.5 0 0 0-.5.5v1a.5.5 0 0 0 .5.5h1a.5.5 0 0 0 .5-.5v-1a.5.5 0 0 0-.5-.5h-1Zm4 4a.5.5 0 0 0-.5.5v1a.5.5 0 0 0 .5.5h1a.5.5 0 0 0 .5-.5v-1a.5.5 0 0 0-.5-.5h-1Z"/><path fill="#D3D3D3" d="M30 25.95V26a4 4 0 0 1-4 4H6a4 4 0 0 1-4-4v-.05h.055c.688 0 1.195.247 1.7.494.501.244 1 .488 1.672.488.803 0 1.35-.259 1.883-.51.505-.24.999-.472 1.687-.472.813 0 1.31.256 1.794.507.464.24.918.475 1.63.475.788 0 1.293-.245 1.798-.49.507-.246 1.015-.492 1.812-.492.806 0 1.311.252 1.81.5.485.243.964.482 1.707.482.726 0 1.252-.253 1.77-.502.504-.242 1.001-.48 1.667-.48.763 0 1.248.239 1.74.48.505.25 1.016.502 1.843.502.692 0 1.272-.264 1.83-.519.517-.236 1.015-.463 1.568-.463H30Z"/></svg>
